assets/svg/actionwalleterrorwallet.svg

<svg width="80" height="80" viewBox="0 0 80 80" fill="none" xmlns="http://www.w3.org/2000/svg">
<path d="M67.8019 45.2432H55.3108C54.3913 45.2432 53.5095 45.6084 52.8593 46.2586C52.2091 46.9088 51.8438 47.7906 51.8438 48.7101V53.6301C51.8438 54.5496 52.2091 55.4314 52.8593 56.0815C53.5095 56.7317 54.3913 57.0969 55.3108 57.0969H67.8019L72.4698 55.098V43.2441L67.8019 45.2432ZM55.8647 52.5627C55.5892 52.5628 55.32 52.4811 55.0909 52.3281C54.8619 52.1751 54.6834 51.9576 54.5779 51.7031C54.4725 51.4487 54.4449 51.1686 54.4986 50.8985C54.5523 50.6283 54.685 50.3802 54.8797 50.1854C55.0745 49.9906 55.3226 49.8579 55.5928 49.8042C55.8629 49.7504 56.143 49.778 56.3974 49.8834C56.6519 49.9888 56.8694 50.1673 57.0225 50.3963C57.1755 50.6254 57.2572 50.8946 57.2572 51.1701C57.2572 51.5394 57.1105 51.8936 56.8493 52.1548C56.5882 52.4159 56.234 52.5627 55.8647 52.5627ZM68.3488 53.929C68.3488 54.074 68.2911 54.2131 68.1886 54.3157C68.086 54.4182 67.9469 54.4759 67.8019 54.4759C67.6568 54.4759 67.5177 54.4182 67.4152 54.3157C67.3126 54.2131 67.255 54.074 67.255 53.929V48.4112C67.255 48.2661 67.3126 48.127 67.4152 48.0245C67.5177 47.9219 67.6568 47.8643 67.8019 47.8643C67.9469 47.8643 68.086 47.9219 68.1886 48.0245C68.2911 48.127 68.3488 48.2661 68.3488 48.4112V53.929Z" fill="#E1EAF8"/>
<path d="M20.7898 25.8399L48.8227 13.2207L42.6398 4.94097C42.5299 4.79373 42.392 4.66959 42.2341 4.57563C42.0762 4.48167 41.9013 4.41974 41.7194 4.39338C41.5376 4.36702 41.3523 4.37673 41.1742 4.42198C40.9961 4.46722 40.8286 4.54711 40.6814 4.65707L12.3164 25.8399H20.7898Z" fill="#FD4E4E"/>
<path d="M35.5 6L30.143 2.1736C29.2382 1.52725 27.9798 1.74314 27.3421 2.65414L11 26" stroke="#9A9A9A" stroke-width="1.4" stroke-linecap="round" stroke-linejoin="round"/>
<path d="M62.5 26L56.3172 12.3095C55.8649 11.308 54.6894 10.859 53.6846 11.304L20.5 26" stroke="#9A9A9A" stroke-width="1.4" stroke-linecap="round" stroke-linejoin="round"/>
<path d="M14.5 21H10C9.16667 21 7.5 21.5 7.5 23.5M7.5 23.5C7.5 25.5 9.16667 26 10 26H64C65.3333 26 68 26.8 68 30C68 33.2 68 40.3333 68 43.5M7.5 23.5V55.5M30.5 76.5H64C65.3333 76.1667 68 75 68 73C68 71 68 63.1667 68 59.5" stroke="#9A9A9A" stroke-width="1.4" stroke-linecap="round" stroke-linejoin="round"/>
<path d="M64 21.0002C66.8333 20.8335 72.5 22.0002 72.5 28.0002C72.5 34.0002 72.5 56.8334 72.5 67.5C72.3333 69.1667 71.2 72.5 68 72.5" stroke="#9A9A9A" stroke-width="1.4" stroke-linecap="round" stroke-linejoin="round"/>
<path d="M31.468 40.2016V37.8595C31.4673 37.3241 31.2543 36.8108 30.8757 36.4322C30.4971 36.0536 29.9838 35.8407 29.4484 35.8401H16.4767C15.9413 35.8407 15.428 36.0537 15.0494 36.4323C14.6708 36.8109 14.4578 37.3242 14.4572 37.8596V40.2016C14.4578 40.7371 14.6708 41.2504 15.0494 41.629C15.428 42.0076 15.9413 42.2205 16.4767 42.2212H29.4484C29.9839 42.2205 30.4972 42.0076 30.8758 41.629C31.2544 41.2504 31.4673 40.7371 31.468 40.2016ZM15.5508 40.2016V37.8595C15.5511 37.614 15.6488 37.3787 15.8224 37.2052C15.996 37.0317 16.2313 36.9341 16.4767 36.9338H19.822C19.2587 37.2731 18.7927 37.7522 18.4692 38.3248C18.1458 38.8974 17.976 39.5439 17.9763 40.2015C17.9759 40.5387 18.0918 40.8657 18.3044 41.1274H16.4767C16.2313 41.1271 15.996 41.0295 15.8224 40.8559C15.6489 40.6824 15.5511 40.4471 15.5508 40.2016ZM13.7189 31.9355H17.6086C17.7536 31.9355 17.8927 31.8779 17.9953 31.7754C18.0979 31.6728 18.1555 31.5337 18.1555 31.3887C18.1555 31.2436 18.0979 31.1045 17.9953 31.002C17.8927 30.8994 17.7536 30.8418 17.6086 30.8418H13.7188C13.5737 30.8418 13.4346 30.8994 13.3321 31.002C13.2295 31.1045 13.1719 31.2436 13.1719 31.3887C13.1719 31.5337 13.2295 31.6728 13.3321 31.7754C13.4346 31.8779 13.5739 31.9355 13.7189 31.9355ZM26.4103 31.9355C26.5554 31.9355 26.6945 31.8779 26.797 31.7754C26.8996 31.6728 26.9572 31.5337 26.9572 31.3887C26.9572 31.2436 26.8996 31.1045 26.797 31.002C26.6945 30.8994 26.5554 30.8418 26.4103 30.8418H22.5205C22.3754 30.8418 22.2363 30.8994 22.1338 31.002C22.0312 31.1045 21.9736 31.2436 21.9736 31.3887C21.9736 31.5337 22.0312 31.6728 22.1338 31.7754C22.2363 31.8779 22.3754 31.9355 22.5205 31.9355H26.4103ZM35.2119 30.8418H31.322C31.177 30.8418 31.0379 30.8994 30.9353 31.002C30.8328 31.1045 30.7752 31.2436 30.7752 31.3887C30.7752 31.5337 30.8328 31.6728 30.9353 31.7754C31.0379 31.8779 31.177 31.9355 31.322 31.9355H35.2119C35.3569 31.9355 35.496 31.8779 35.5986 31.7754C35.7011 31.6728 35.7588 31.5337 35.7588 31.3887C35.7588 31.2436 35.7011 31.1045 35.5986 31.002C35.496 30.8994 35.3569 30.8418 35.2119 30.8418ZM44.0136 30.8418H40.1236C39.9786 30.8418 39.8395 30.8994 39.7369 31.002C39.6343 31.1045 39.5767 31.2436 39.5767 31.3887C39.5767 31.5337 39.6343 31.6728 39.7369 31.7754C39.8395 31.8779 39.9786 31.9355 40.1236 31.9355H44.0136C44.1586 31.9355 44.2977 31.8779 44.4003 31.7754C44.5029 31.6728 44.5605 31.5337 44.5605 31.3887C44.5605 31.2436 44.5029 31.1045 44.4003 31.002C44.2977 30.8994 44.1586 30.8418 44.0136 30.8418ZM52.8152 30.8418H48.9252C48.7801 30.8418 48.641 30.8994 48.5385 31.002C48.4359 31.1045 48.3783 31.2436 48.3783 31.3887C48.3783 31.5337 48.4359 31.6728 48.5385 31.7754C48.641 31.8779 48.7801 31.9355 48.9252 31.9355H52.815C52.96 31.9355 53.0991 31.8779 53.2017 31.7754C53.3043 31.6728 53.3619 31.5337 53.3619 31.3887C53.3619 31.2436 53.3043 31.1045 53.2017 31.002C53.0991 30.8994 52.9602 30.8418 52.8152 30.8418ZM61.6167 30.8418H57.7267C57.5817 30.8418 57.4426 30.8994 57.34 31.002C57.2375 31.1045 57.1798 31.2436 57.1798 31.3887C57.1798 31.5337 57.2375 31.6728 57.34 31.7754C57.4426 31.8779 57.5817 31.9355 57.7267 31.9355H61.6166C61.7616 31.9355 61.9007 31.8779 62.0033 31.7754C62.1058 31.6728 62.1634 31.5337 62.1634 31.3887C62.1634 31.2436 62.1058 31.1045 62.0033 31.002C61.9007 30.8994 61.7618 30.8418 61.6167 30.8418ZM31.322 71.4987H35.2119C35.3569 71.4987 35.496 71.4411 35.5986 71.3385C35.7011 71.2359 35.7588 71.0968 35.7588 70.9518C35.7588 70.8068 35.7011 70.6677 35.5986 70.5651C35.496 70.4625 35.3569 70.4049 35.2119 70.4049H31.322C31.177 70.4049 31.0379 70.4625 30.9353 70.5651C30.8328 70.6677 30.7752 70.8068 30.7752 70.9518C30.7752 71.0968 30.8328 71.2359 30.9353 71.3385C31.0379 71.4411 31.177 71.4987 31.322 71.4987ZM44.0136 70.4049H40.1236C39.9786 70.4049 39.8395 70.4625 39.7369 70.5651C39.6343 70.6677 39.5767 70.8068 39.5767 70.9518C39.5767 71.0968 39.6343 71.2359 39.7369 71.3385C39.8395 71.4411 39.9786 71.4987 40.1236 71.4987H44.0136C44.1586 71.4987 44.2977 71.4411 44.4003 71.3385C44.5029 71.2359 44.5605 71.0968 44.5605 70.9518C44.5605 70.8068 44.5029 70.6677 44.4003 70.5651C44.2977 70.4625 44.1586 70.4049 44.0136 70.4049ZM52.8152 70.4049H48.9252C48.7801 70.4049 48.641 70.4625 48.5385 70.5651C48.4359 70.6677 48.3783 70.8068 48.3783 70.9518C48.3783 71.0968 48.4359 71.2359 48.5385 71.3385C48.641 71.4411 48.7801 71.4987 48.9252 71.4987H52.815C52.96 71.4987 53.0991 71.4411 53.2017 71.3385C53.3043 71.2359 53.3619 71.0968 53.3619 70.9518C53.3619 70.8068 53.3043 70.6677 53.2017 70.5651C53.0991 70.4625 52.9602 70.4049 52.8152 70.4049ZM61.6167 70.4049H57.7267C57.5817 70.4049 57.4426 70.4625 57.34 70.5651C57.2375 70.6677 57.1798 70.8068 57.1798 70.9518C57.1798 71.0968 57.2375 71.2359 57.34 71.3385C57.4426 71.4411 57.5817 71.4987 57.7267 71.4987H61.6166C61.7616 71.4987 61.9007 71.4411 62.0033 71.3385C62.1058 71.2359 62.1634 71.0968 62.1634 70.9518C62.1634 70.8068 62.1058 70.6677 62.0033 70.5651C61.9007 70.4625 61.7618 70.4049 61.6167 70.4049Z" fill="#9A9A9A"/>
<path d="M56.1679 17.4809C56.3009 17.7797 56.3664 18.1041 56.3597 18.4311C56.3531 18.758 56.2745 19.0795 56.1295 19.3726C55.9845 19.6658 55.7767 19.9233 55.5209 20.127C55.2651 20.3307 54.9675 20.4756 54.6493 20.5512L39.9398 24.05C39.7262 24.1008 39.5047 24.109 39.2879 24.0742C39.0711 24.0394 38.8633 23.9623 38.6763 23.8472C38.4894 23.732 38.3269 23.5812 38.1982 23.4033C38.0696 23.2254 37.9772 23.0239 37.9264 22.8103C37.922 22.7922 37.918 22.7739 37.9143 22.7556C37.8439 22.4082 37.8923 22.0472 38.0517 21.7306C38.211 21.414 38.4722 21.1601 38.7933 21.0098L50.6954 15.4386C51.6782 14.9786 52.8034 14.9278 53.8236 15.2974C54.8437 15.667 55.6753 16.4268 56.1353 17.4095C56.1464 17.4332 56.1573 17.457 56.1679 17.4809Z" fill="#E1EAF8"/>
<path d="M16.5 58C10.4243 58 5.5 62.9254 5.5 69C5.5 75.0757 10.4254 80 16.5 80C22.5757 80 27.5 75.0746 27.5 69C27.5 62.9243 22.5757 58 16.5 58ZM22.6077 73.9361C22.7629 74.0916 22.85 74.3022 22.85 74.5219C22.85 74.7415 22.7629 74.9522 22.6077 75.1077C22.4456 75.2698 22.2337 75.3503 22.0219 75.3503C21.8101 75.3503 21.5982 75.2698 21.4361 75.1077L16.5 70.1716L11.5639 75.1077C11.4018 75.2698 11.1899 75.3503 10.9781 75.3503C10.7663 75.3503 10.5544 75.2698 10.3923 75.1077C10.2371 74.9522 10.15 74.7415 10.15 74.5219C10.15 74.3022 10.2371 74.0916 10.3923 73.9361L15.3284 69L10.3923 64.0639C10.0692 63.7408 10.0692 63.2154 10.3923 62.8923C10.7154 62.5692 11.2408 62.5692 11.5639 62.8923L16.5 67.8284L21.4361 62.8923C21.7592 62.5692 22.2846 62.5692 22.6077 62.8923C22.9308 63.2154 22.9308 63.7408 22.6077 64.0639L17.6716 69L22.6077 73.9361Z" fill="#FD4E4E"/>
</svg>

<svg xmlns="http://www.w3.org/2000/svg" width="80" height="80" fill="none"><path fill="#E1EAF8" d="M67.802 45.243H55.31a3.467 3.467 0 0 0-3.467 3.467v4.92a3.467 3.467 0 0 0 3.467 3.467H67.8l4.669-1.999V43.244zm-11.937 7.32a1.392 1.392 0 1 1-.001-2.785 1.392 1.392 0 0 1 0 2.785m12.484 1.366a.547.547 0 0 1-1.094 0v-5.518a.547.547 0 1 1 1.094 0z"/><path fill="#FD4E4E" d="m20.79 25.84 28.033-12.62-6.183-8.279a1.4 1.4 0 0 0-1.959-.284L12.316 25.84z"/><path stroke="#9A9A9A" stroke-linecap="round" stroke-linejoin="round" stroke-width="1.4" d="m35.5 6-5.357-3.826a2 2 0 0 0-2.8.48L11 26M62.5 26l-6.183-13.69a2 2 0 0 0-2.632-1.006L20.5 26"/><path stroke="#9A9A9A" stroke-linecap="round" stroke-linejoin="round" stroke-width="1.4" d="M14.5 21H10c-.833 0-2.5.5-2.5 2.5m0 0c0 2 1.667 2.5 2.5 2.5h54c1.333 0 4 .8 4 4v13.5m-60.5-20v32m23 21H64c1.333-.333 4-1.5 4-3.5V59.5"/><path stroke="#9A9A9A" stroke-linecap="round" stroke-linejoin="round" stroke-width="1.4" d="M64 21c2.833-.166 8.5 1 8.5 7v39.5c-.167 1.667-1.3 5-4.5 5"/><path fill="#9A9A9A" d="M31.468 40.202v-2.343a2.02 2.02 0 0 0-2.02-2.019H16.477a2.02 2.02 0 0 0-2.02 2.02v2.342a2.02 2.02 0 0 0 2.02 2.02h12.971a2.02 2.02 0 0 0 2.02-2.02m-15.917 0v-2.343a.927.927 0 0 1 .926-.925h3.345a3.81 3.81 0 0 0-1.846 3.268c0 .337.116.664.328.925h-1.827a.927.927 0 0 1-.926-.925m-1.832-8.266h3.89a.547.547 0 0 0 0-1.094h-3.89a.547.547 0 1 0 0 1.094m12.691 0a.547.547 0 1 0 0-1.094h-3.89a.547.547 0 1 0 0 1.094zm8.802-1.094h-3.89a.547.547 0 0 0 0 1.094h3.89a.547.547 0 0 0 0-1.094m8.802 0h-3.89a.547.547 0 0 0 0 1.094h3.89a.547.547 0 0 0 0-1.094m8.801 0h-3.89a.547.547 0 1 0 0 1.094h3.89a.547.547 0 0 0 0-1.094m8.802 0h-3.89a.547.547 0 0 0 0 1.094h3.89a.547.547 0 0 0 0-1.094M31.322 71.499h3.89a.547.547 0 0 0 0-1.094h-3.89a.547.547 0 0 0 0 1.094m12.692-1.094h-3.89a.547.547 0 0 0 0 1.094h3.89a.547.547 0 0 0 0-1.094m8.801 0h-3.89a.547.547 0 1 0 0 1.094h3.89a.547.547 0 0 0 0-1.094m8.802 0h-3.89a.547.547 0 0 0 0 1.094h3.89a.547.547 0 0 0 0-1.094"/><path fill="#E1EAF8" d="M56.168 17.48a2.224 2.224 0 0 1-1.519 3.071L39.94 24.05a1.67 1.67 0 0 1-2.025-1.294 1.58 1.58 0 0 1 .88-1.746l11.901-5.571a4.09 4.09 0 0 1 5.473 2.042"/><path fill="#FD4E4E" d="M16.5 58c-6.076 0-11 4.925-11 11s4.925 11 11 11 11-4.925 11-11-4.924-11-11-11m6.108 15.936a.83.83 0 0 1-1.172 1.172L16.5 70.172l-4.936 4.936a.825.825 0 0 1-1.172 0 .83.83 0 0 1 0-1.172L15.328 69l-4.936-4.936a.83.83 0 0 1 1.172-1.172l4.936 4.936 4.936-4.936a.83.83 0 0 1 1.172 1.172L17.672 69z"/></svg>
